bitrix/templates/main/img/svg/sw.svg

<?xml version="1.0" encoding="UTF-8"?>
<svg width="52px" height="97px" viewBox="0 0 52 97" version="1.1" xmlns="http://www.w3.org/2000/svg" xmlns:xlink="http://www.w3.org/1999/xlink">
    <!-- Generator: Sketch 45.1 (43504) - http://www.bohemiancoding.com/sketch -->
    <title>sw</title>
    <desc>Created with Sketch.</desc>
    <defs>
        <path d="M11.1344077,27.8676378 C7.56211244,24.5375219 2.76900059,22.5 -2.5,22.5 C-13.545695,22.5 -22.5,31.454305 -22.5,42.5 C-22.5,53.545695 -13.545695,62.5 -2.5,62.5 C2.61066594,62.5 7.27361454,60.5830942 10.8090758,57.4290525 C14.9221776,56.4763508 17.985819,56 20,56 C22.014181,56 25.0778224,56.4763508 29.1909242,57.4290525 C32.7263855,60.5830942 37.3893341,62.5 42.5,62.5 C53.545695,62.5 62.5,53.545695 62.5,42.5 C62.5,31.454305 53.545695,22.5 42.5,22.5 C37.2309994,22.5 32.4378876,24.5375219 28.8655923,27.8676378 C25.7594132,28.6225459 22.8042158,29 20,29 C17.1957842,29 14.2405868,28.6225459 11.1344077,27.8676378 Z" id="path-1"></path>
        <filter x="-10.6%" y="-22.5%" width="121.2%" height="145.0%" filterUnits="objectBoundingBox" id="filter-2">
            <feOffset dx="0" dy="0" in="SourceAlpha" result="shadowOffsetOuter1"></feOffset>
            <feGaussianBlur stdDeviation="3" in="shadowOffsetOuter1" result="shadowBlurOuter1"></feGaussianBlur>
            <feColorMatrix values="0 0 0 0 0.368627451   0 0 0 0 0.368627451   0 0 0 0 0.368627451  0 0 0 0.3 0" type="matrix" in="shadowBlurOuter1"></feColorMatrix>
        </filter>
        <circle id="path-3" cx="17" cy="17" r="17"></circle>
        <filter x="-5.9%" y="-2.9%" width="111.8%" height="111.8%" filterUnits="objectBoundingBox" id="filter-4">
            <feOffset dx="0" dy="1" in="SourceAlpha" result="shadowOffsetOuter1"></feOffset>
            <feGaussianBlur stdDeviation="0.5" in="shadowOffsetOuter1" result="shadowBlurOuter1"></feGaussianBlur>
            <feColorMatrix values="0 0 0 0 0   0 0 0 0 0   0 0 0 0 0  0 0 0 0.2 0" type="matrix" in="shadowBlurOuter1"></feColorMatrix>
        </filter>
        <polygon id="path-5" points="19.721467 25.2511429 19.721467 0 0 0 0 25.2511429 19.721467 25.2511429"></polygon>
    </defs>
    <g id="Prod" stroke="none" stroke-width="1" fill="none" fill-rule="evenodd">
        <g id="Prod_2-Copy-4" transform="translate(-639.000000, -839.000000)">
            <g id="1-copy-5" transform="translate(310.000000, 825.000000)">
                <g id="sw" transform="translate(335.000000, 20.000000)">
                    <g id="Combined-Shape" transform="translate(20.000000, 42.500000) rotate(90.000000) translate(-20.000000, -42.500000) ">
                        <use fill="black" fill-opacity="1" filter="url(#filter-2)" xlink:href="#path-1"></use>
                        <use fill="#FFFFFF" fill-rule="evenodd" xlink:href="#path-1"></use>
                    </g>
                    <g id="Icon" transform="translate(3.000000, 48.000000)">
                        <circle id="Oval-2" fill="#EBEBEB" cx="17" cy="17" r="17"></circle>
                        <path d="M27.6722019,21.5809057 L24.526801,20.0022997 L27.2605638,18.9510236 C27.6412807,18.8045699 27.8163166,18.4142685 27.6498392,18.0800352 C27.4863988,17.7564355 27.0272746,17.5976565 26.654288,17.7402434 L22.898194,19.184721 L18.518155,16.985983 L22.8772118,14.7833782 L26.6760984,16.2314809 C27.0617848,16.3769678 27.5079331,16.2104554 27.6672324,15.8883057 C27.8328815,15.5538307 27.6570174,15.1642543 27.2763004,15.0197341 L24.5019537,13.9621744 L27.6630912,12.364718 C27.8375749,12.2765074 27.9623639,12.1339206 28.0139912,11.9632997 C28.0661707,11.7926787 28.0393908,11.6148076 27.9383448,11.4620705 C27.7370811,11.1594963 27.2558704,11.0444601 26.907179,11.2201562 L23.7672998,12.8067373 L24.1038436,10.2097227 C24.1270345,10.0335433 24.0701616,9.86026398 23.9439922,9.72154386 C23.8183749,9.58379043 23.6391978,9.49727161 23.4406949,9.47817947 C23.0182896,9.43443672 22.6483399,9.7017267 22.6049951,10.0620607 L22.1784486,13.6293911 L17.8282264,15.8448046 L17.8282264,11.4456368 L21.1205028,9.29184983 C21.276213,9.19179734 21.3780872,9.04389366 21.4073519,8.87520613 C21.4377209,8.69902675 21.384161,8.51438882 21.2607524,8.36841852 C21.0205612,8.08300308 20.5611609,8.01750979 20.2315192,8.22994007 L17.8282264,9.79912079 L17.8282264,6.61024976 C17.8282264,6.22115675 17.3906366,5.95 16.9977721,5.95 C16.6071163,5.95 16.1717351,6.22115675 16.1717351,6.61024976 L16.1717351,9.77978698 L13.8048852,8.2296984 C13.4810411,8.0192015 13.0089411,8.08300308 12.7679217,8.36817685 C12.6417522,8.51704722 12.5873641,8.70458522 12.6180092,8.88221464 C12.6467217,9.04824377 12.7472155,9.19348905 12.8987845,9.2903998 L16.1717351,11.4253363 L16.1717351,15.8426295 L11.8866683,13.6757923 L11.430305,10.1060451 C11.3847514,9.77302014 11.0678094,9.52192223 10.6923381,9.52192223 C10.6622452,9.52192223 10.6310479,9.52337226 10.6023354,9.52675568 C10.1948385,9.56759836 9.89860269,9.89506485 9.94222363,10.2597489 L10.290639,12.8572469 L7.07676981,11.2435984 C6.96302408,11.1868053 6.83381776,11.1565962 6.70323103,11.1565962 C6.43322295,11.1565962 6.18254061,11.2837161 6.04891698,11.4886545 C5.84378814,11.8016206 5.96774891,12.2056974 6.32775968,12.3903353 L9.56205888,14.0138924 L6.7921294,15.0787022 C6.60715454,15.149754 6.46497237,15.2792905 6.39236284,15.4433863 C6.31920114,15.6077237 6.32389453,15.7872865 6.40478652,15.9479988 C6.56380968,16.2689401 7.00857759,16.4327942 7.3984052,16.2892406 L11.191218,14.831471 L15.4911933,16.9896081 L11.1821073,19.1673206 L7.42159608,17.7334766 C7.0480573,17.5916147 6.59031354,17.750877 6.42908173,18.0754434 C6.26232827,18.4087101 6.43736418,18.7990114 6.8194615,18.9459484 L9.55598508,19.9890077 L6.34736149,21.6106314 C5.98928329,21.7943026 5.86615078,22.1991044 6.0729361,22.5127955 C6.2071119,22.7165256 6.4583464,22.8429204 6.72725015,22.8429204 C6.86114987,22.8429204 6.99201268,22.8117446 7.10327367,22.7542265 L10.3334317,21.1219692 L9.99081404,23.7566848 C9.96872749,23.9321392 10.0258764,24.1049352 10.1523219,24.2431719 C10.2782153,24.3806837 10.4576685,24.4674442 10.6509258,24.4858113 C10.6804666,24.4894364 10.712216,24.4901614 10.7436893,24.4901614 C11.1274431,24.4901614 11.4493546,24.2383385 11.4926995,23.9021718 L11.9244915,20.2995571 L16.1717351,18.1373116 L16.1717351,22.5260875 L13.2552062,24.661749 C12.9437858,24.8901297 12.9084473,25.3070151 13.1740381,25.5880804 C13.3137355,25.7396092 13.5348771,25.8299948 13.7656816,25.8299948 C13.9741234,25.8299948 14.1140969,25.7516928 14.2187319,25.6789493 L16.1717351,24.2448636 L16.1717351,27.3897502 C16.1717351,27.7788433 16.6071163,28.05 16.9977721,28.05 C17.3906366,28.05 17.8282264,27.7788433 17.8282264,27.3897502 L17.8282264,24.2238381 L19.8110465,25.6818494 C20.1415165,25.9145802 20.5882169,25.8594788 20.841384,25.5909805 C20.9683817,25.4573355 21.0354696,25.2913063 21.0296719,25.1228605 C21.0241502,24.9396726 20.9335954,24.7758185 20.7759526,24.661024 L17.8282264,22.504337 L17.8282264,18.1269197 L22.1649206,20.320341 L22.624873,23.9236806 C22.6704265,24.2559806 22.9881967,24.5063535 23.3642202,24.5063535 C23.3998348,24.5063535 23.4219213,24.5049034 23.4462165,24.5017617 C23.6452716,24.4826696 23.8236205,24.3961507 23.9486856,24.2588807 C24.0751311,24.1201605 24.1320039,23.9463979 24.108537,23.7697351 L23.757913,21.1386447 L26.9218113,22.7266759 C27.0350049,22.7839523 27.1650395,22.8141614 27.2970066,22.8141614 C27.5672907,22.8141614 27.817697,22.6867999 27.9507685,22.4818614 C28.1564495,22.1676869 28.0322126,21.7633685 27.6722019,21.5809057" id="Fill-1" fill="#FFFFFF"></path>
                    </g>
                    <g id="Icon" transform="translate(3.000000, 3.000000)">
                        <g id="Oval-2">
                            <use fill="black" fill-opacity="1" filter="url(#filter-4)" xlink:href="#path-3"></use>
                            <use fill="#39B54A" fill-rule="evenodd" xlink:href="#path-3"></use>
                        </g>
                        <g id="Page-1" transform="translate(6.800000, 4.250000)">
                            <mask id="mask-6" fill="white">
                                <use xlink:href="#path-5"></use>
                            </mask>
                            <g id="Clip-2"></g>
                            <path d="M15.9092655,19.1397916 C15.9092655,17.8719009 14.8776137,16.8408102 13.6094424,16.8408102 C12.3407099,16.8408102 11.3093387,17.8721814 11.3093387,19.1397916 C11.3093387,20.4090852 12.3409905,21.440737 13.6094424,21.440737 C14.8776137,21.440737 15.9092655,20.4090852 15.9092655,19.1397916 L15.9092655,19.1397916 Z M16.7534972,19.1397916 C16.7534972,20.8748296 15.3439192,22.2846882 13.6091618,22.2846882 C11.8741238,22.2846882 10.4651069,20.8748296 10.4651069,19.1397916 C10.4651069,17.5517718 11.6533161,16.2476876 13.1860639,16.0381027 L13.1860639,13.1148555 C13.1860639,12.8811417 13.3754479,12.6937217 13.6091618,12.6937217 C13.8423145,12.6937217 14.0322597,12.8811417 14.0322597,13.1148555 L14.0322597,16.0381027 C15.5647269,16.2476876 16.7534972,17.5517718 16.7534972,19.1397916 L16.7534972,19.1397916 Z M18.0314885,19.1397916 C18.0314885,17.4847158 17.1154311,15.9819889 15.6435667,15.216597 C15.3632784,15.0715429 15.1870812,14.7822764 15.1870812,14.466917 L15.1870812,3.26744904 C15.1870812,2.39768552 14.4789253,1.68981024 13.6091618,1.68981024 C12.738276,1.68981024 12.031523,2.39768552 12.031523,3.26744904 L12.031523,14.466917 C12.031523,14.7822764 11.8553257,15.0715429 11.5758791,15.216597 C10.1028925,15.9822695 9.18739627,17.4847158 9.18739627,19.1397916 C9.18739627,21.5782158 11.1710182,23.5632406 13.6091618,23.5632406 C16.0478665,23.56296 18.0314885,21.5782158 18.0314885,19.1397916 L18.0314885,19.1397916 Z M19.7216354,19.1397916 C19.7216354,22.5108267 16.9790746,25.2511429 13.6091618,25.2511429 C10.2389684,25.2511429 7.49781048,22.5108267 7.49781048,19.1397916 C7.49781048,17.0282303 8.57463384,15.0945495 10.3413761,13.9784465 L10.3413761,3.26744904 C10.3416566,1.46563571 11.8073485,-5.61137757e-05 13.6091618,-5.61137757e-05 C15.4112557,-5.61137757e-05 16.8763864,1.46563571 16.8763864,3.26744904 L16.8763864,13.978166 C18.6434092,15.0953913 19.7216354,17.0279497 19.7216354,19.1397916 L19.7216354,19.1397916 Z M6.60560145,10.1419477 L6.544718,11.8556624 C6.53545923,12.0832038 6.34860035,12.2616456 6.12302298,12.2616456 L6.10703055,12.2616456 C5.87359724,12.2529479 5.69178861,12.0573914 5.70020568,11.8242387 L5.77652041,9.70594367 L4.81192461,8.35556566 L3.82291931,9.6930375 L3.86304066,11.8082463 C3.8680909,12.041399 3.68207373,12.2344304 3.44920156,12.2392001 L3.44106507,12.2392001 C3.21099859,12.2392001 3.02301744,12.0559886 3.01824777,11.8250804 L2.98542121,10.110524 L1.33595677,10.5751461 C1.29723827,10.5863688 1.25851976,10.5911385 1.22036239,10.5911385 C1.03574807,10.5911385 0.866845607,10.4702133 0.813818089,10.283635 C0.751251229,10.0586187 0.881996326,9.8246243 1.10617086,9.76233801 L3.14618718,9.18745238 L4.13238678,7.85475021 L2.5617622,7.32307218 L0.559622685,8.00850195 C0.513889958,8.02449438 0.467596093,8.03178917 0.422424503,8.03178917 C0.246227248,8.03178917 0.0829361605,7.92208674 0.0228944205,7.74588948 C-0.0528591767,7.52480121 0.0644186145,7.28463425 0.285506891,7.20916122 L1.90915899,6.65335427 L0.962519594,5.22301413 C0.834019048,5.02829933 0.887046566,4.76652856 1.0814808,4.63746688 C1.27563446,4.50868576 1.53796636,4.56143271 1.66674748,4.75670865 L2.83531686,6.52345088 L4.39499925,7.05120094 L4.39499925,5.4053839 L3.09933217,3.72982656 C2.95680318,3.54493167 2.99103259,3.27979408 3.17564691,3.13726509 C3.35941952,2.99389439 3.62427654,3.02840436 3.76820838,3.21273811 L4.81697485,4.57097205 L5.86602188,3.21273811 C6.00686746,3.02840436 6.27312733,2.99417496 6.45802222,3.13726509 C6.64347825,3.27979408 6.67658537,3.54408996 6.53405638,3.72982656 L5.23951158,5.4053839 L5.23951158,7.05989858 L6.81799209,6.55711915 L8.01882689,4.81198072 C8.1512554,4.62063275 8.41470958,4.57097205 8.60493528,4.7039617 C8.79712496,4.83526794 8.84594394,5.09788041 8.713796,5.29007009 L7.74190541,6.70441781 L9.35461532,7.28659823 C9.57402018,7.36599922 9.68877285,7.60616618 9.60937186,7.82641275 C9.546805,7.99840147 9.3854779,8.10585935 9.21208633,8.10585935 C9.16410905,8.10585935 9.11641234,8.09772286 9.06983791,8.08032759 L7.07639603,7.36122955 L5.49819608,7.86400898 L6.46335303,9.21663154 L8.49158545,9.82602715 C8.71547941,9.89336368 8.84229655,10.128761 8.77467945,10.3515327 C8.72024908,10.5347441 8.55218833,10.6525831 8.37037969,10.6525831 C8.33110005,10.6525831 8.28957586,10.64613 8.24945451,10.6349072 L6.60560145,10.1419477 Z" id="Fill-1" fill="#FFFFFF" mask="url(#mask-6)"></path>
                        </g>
                    </g>
                </g>
            </g>
        </g>
    </g>
</svg>

<svg xmlns="http://www.w3.org/2000/svg" xmlns:xlink="http://www.w3.org/1999/xlink" width="52" height="97" viewBox="0 0 52 97"><defs><path id="b" d="M0 0h456v482H0z"/><filter id="a" width="107.5%" height="107.1%" x="-3.7%" y="-2.7%" filterUnits="objectBoundingBox"><feOffset dy="4" in="SourceAlpha" result="shadowOffsetOuter1"/><feGaussianBlur in="shadowOffsetOuter1" result="shadowBlurOuter1" stdDeviation="5"/><feColorMatrix in="shadowBlurOuter1" values="0 0 0 0 0 0 0 0 0 0 0 0 0 0 0 0 0 0 0.1 0"/></filter><path id="d" d="M11.134 27.868A19.93 19.93 0 0 0-2.5 22.5c-11.046 0-20 8.954-20 20s8.954 20 20 20c5.11 0 9.774-1.917 13.31-5.07C14.92 56.475 17.985 56 20 56c2.014 0 5.078.476 9.19 1.43A19.925 19.925 0 0 0 42.5 62.5c11.046 0 20-8.954 20-20s-8.954-20-20-20a19.93 19.93 0 0 0-13.634 5.368C25.76 28.623 22.804 29 20 29c-2.804 0-5.76-.377-8.866-1.132z"/><filter id="c" width="121.2%" height="145%" x="-10.6%" y="-22.5%" filterUnits="objectBoundingBox"><feOffset in="SourceAlpha" result="shadowOffsetOuter1"/><feGaussianBlur in="shadowOffsetOuter1" result="shadowBlurOuter1" stdDeviation="3"/><feColorMatrix in="shadowBlurOuter1" values="0 0 0 0 0.368627451 0 0 0 0 0.368627451 0 0 0 0 0.368627451 0 0 0 0.3 0"/></filter><circle id="f" cx="17" cy="17" r="17"/><filter id="e" width="111.8%" height="111.8%" x="-5.9%" y="-2.9%" filterUnits="objectBoundingBox"><feOffset dy="1" in="SourceAlpha" result="shadowOffsetOuter1"/><feGaussianBlur in="shadowOffsetOuter1" result="shadowBlurOuter1" stdDeviation=".5"/><feColorMatrix in="shadowBlurOuter1" values="0 0 0 0 0 0 0 0 0 0 0 0 0 0 0 0 0 0 0.2 0"/></filter><path id="g" d="M19.72 25.25V0H0v25.25h19.72z"/></defs><g fill="none" fill-rule="evenodd"><g transform="translate(-395 -14)"><use fill="#000" filter="url(#a)" xlink:href="#b"/><use fill="#FFF" xlink:href="#b"/></g><g transform="rotate(90 20 48.5)"><use fill="#000" filter="url(#c)" xlink:href="#d"/><use fill="#FFF" xlink:href="#d"/></g><g transform="translate(9 54)"><circle cx="17" cy="17" r="17" fill="#EBEBEB"/><path fill="#FFF" d="M27.672 21.58l-3.145-1.578 2.734-1.05c.38-.147.556-.538.39-.872-.164-.324-.623-.482-.996-.34l-3.756 1.445-4.38-2.2 4.36-2.202 3.798 1.448c.386.147.832-.02.99-.342.167-.334-.01-.724-.39-.868l-2.774-1.058 3.16-1.597c.176-.088.3-.23.352-.402a.584.584 0 0 0-.076-.5c-.2-.304-.682-.42-1.03-.243l-3.14 1.587.336-2.597a.6.6 0 0 0-.16-.488.778.778 0 0 0-.503-.244c-.422-.044-.792.224-.835.584l-.427 3.567-4.35 2.215v-4.4l3.293-2.153a.623.623 0 0 0 .287-.417.623.623 0 0 0-.146-.507c-.24-.285-.7-.35-1.03-.138l-2.4 1.57V6.61c0-.39-.438-.66-.83-.66-.39 0-.827.27-.827.66v3.17l-2.367-1.55c-.324-.21-.796-.147-1.037.138a.632.632 0 0 0-.15.514c.028.166.13.31.28.408l3.273 2.135v4.418l-4.285-2.167-.457-3.57c-.044-.333-.36-.584-.737-.584a.785.785 0 0 0-.09.005c-.407.04-.703.368-.66.733l.35 2.597-3.215-1.613a.84.84 0 0 0-.374-.087.78.78 0 0 0-.654.332c-.205.312-.08.716.28.9l3.233 1.624-2.77 1.065a.702.702 0 0 0-.4.363.58.58 0 0 0 .013.505c.16.32.604.485.993.34l3.792-1.457 4.3 2.16-4.31 2.177-3.76-1.434c-.373-.14-.83.018-.992.342-.167.334.008.724.39.87l2.737 1.044-3.21 1.62c-.357.184-.48.59-.273.903.134.204.385.33.654.33a.824.824 0 0 0 .376-.09l3.23-1.63-.342 2.634a.602.602 0 0 0 .16.486.776.776 0 0 0 .593.247c.383 0 .705-.252.75-.588l.43-3.602 4.248-2.163v4.39l-2.917 2.135a.606.606 0 0 0-.08.926c.14.152.36.242.59.242a.756.756 0 0 0 .454-.15l1.953-1.435v3.145c0 .39.435.66.826.66.392 0 .83-.27.83-.66v-3.166l1.982 1.458a.8.8 0 0 0 1.03-.09.648.648 0 0 0 .19-.47.588.588 0 0 0-.255-.46l-2.948-2.158v-4.377l4.336 2.193.46 3.604c.045.332.363.582.74.582a.775.775 0 0 0 .584-.247.6.6 0 0 0 .16-.49l-.35-2.63 3.163 1.587a.835.835 0 0 0 .375.087c.27 0 .52-.127.654-.332.205-.314.08-.72-.28-.9"/></g><g transform="translate(9 9)"><use fill="#000" filter="url(#e)" xlink:href="#f"/><use fill="#39B54A" xlink:href="#f"/></g><g transform="translate(15.8 13.25)"><mask id="h" fill="#fff"><use xlink:href="#g"/></mask><path fill="#FFF" d="M15.91 19.14a2.302 2.302 0 0 0-2.3-2.3 2.302 2.302 0 0 0-2.3 2.3c0 1.27 1.03 2.3 2.3 2.3 1.268 0 2.3-1.03 2.3-2.3zm.843 0a3.147 3.147 0 0 1-3.144 3.145 3.147 3.147 0 0 1-3.145-3.145 3.14 3.14 0 0 1 2.72-3.102v-2.923c0-.234.19-.42.424-.42.232 0 .422.186.422.42v2.923c1.533.21 2.72 1.514 2.72 3.102zm1.278 0a4.41 4.41 0 0 0-2.386-3.923.844.844 0 0 1-.457-.75v-11.2a1.58 1.58 0 0 0-3.156 0v11.2a.845.845 0 0 1-.454.75 4.41 4.41 0 0 0-2.39 3.923 4.428 4.428 0 0 0 4.423 4.423 4.428 4.428 0 0 0 4.42-4.423zm1.69 0a6.118 6.118 0 0 1-6.11 6.11 6.117 6.117 0 0 1-6.112-6.11 6.088 6.088 0 0 1 2.843-5.162V3.268A3.27 3.27 0 0 1 13.61 0a3.27 3.27 0 0 1 3.267 3.267v10.71a6.09 6.09 0 0 1 2.846 5.163zM6.608 10.142l-.06 1.714a.423.423 0 0 1-.423.406h-.016a.422.422 0 0 1-.407-.438l.078-2.118-.965-1.35-.99 1.337.04 2.115a.423.423 0 0 1-.413.43h-.008a.422.422 0 0 1-.423-.413l-.034-1.714-1.65.465a.422.422 0 0 1-.23-.813l2.04-.575.987-1.332-1.57-.532L.56 8.01a.42.42 0 0 1-.537-.263.422.422 0 0 1 .263-.537l1.623-.556-.947-1.43a.423.423 0 0 1 .704-.466l1.168 1.766 1.56.528V5.405L3.1 3.73a.423.423 0 0 1 .67-.517L4.815 4.57l1.05-1.358a.422.422 0 1 1 .667.517L5.24 5.404V7.06l1.578-.503 1.2-1.745a.42.42 0 1 1 .696.478l-.972 1.414 1.613.583a.42.42 0 1 1-.285.793l-1.994-.72-1.578.504.965 1.353 2.03.61a.42.42 0 1 1-.244.808l-1.644-.493z" mask="url(#h)"/></g></g></svg>
